SF_Symbols/touchid.svg

<?xml version="1.0" encoding="UTF-8"?>
<svg xmlns="http://www.w3.org/2000/svg" xmlns:xlink="http://www.w3.org/1999/xlink" width="24" height="24" viewBox="0 0 24 24" version="1.1">
<g id="surface1">
<path style=" stroke:none;fill-rule:nonzero;fill:rgb(100%,100%,100%);fill-opacity:1;" d="M 1.71875 16 C 1.871094 15.953125 1.980469 15.859375 2.042969 15.71875 C 2.109375 15.574219 2.125 15.414062 2.082031 15.238281 C 1.953125 14.710938 1.851562 14.160156 1.78125 13.582031 C 1.710938 13 1.691406 12.34375 1.71875 11.613281 C 1.726562 11.421875 1.679688 11.269531 1.582031 11.167969 C 1.484375 11.0625 1.359375 11.007812 1.207031 11 C 1.007812 10.984375 0.851562 11.03125 0.738281 11.136719 C 0.636719 11.238281 0.574219 11.375 0.550781 11.542969 C 0.511719 12.125 0.515625 12.765625 0.574219 13.457031 C 0.628906 14.144531 0.757812 14.851562 0.957031 15.574219 C 1.015625 15.753906 1.113281 15.882812 1.261719 15.957031 C 1.40625 16.035156 1.558594 16.046875 1.71875 16 Z M 1.261719 9.792969 C 1.414062 9.847656 1.574219 9.84375 1.738281 9.78125 C 1.90625 9.710938 2.023438 9.578125 2.09375 9.375 C 2.65625 7.8125 3.445312 6.515625 4.457031 5.480469 C 5.472656 4.4375 6.617188 3.65625 7.894531 3.136719 C 9.179688 2.613281 10.5 2.355469 11.855469 2.355469 C 12.777344 2.355469 13.609375 2.449219 14.355469 2.636719 C 15.105469 2.816406 15.789062 3.082031 16.40625 3.4375 C 16.585938 3.542969 16.765625 3.589844 16.9375 3.582031 C 17.109375 3.570312 17.234375 3.476562 17.3125 3.300781 C 17.394531 3.121094 17.402344 2.972656 17.332031 2.855469 C 17.265625 2.730469 17.164062 2.625 17.03125 2.542969 C 16.238281 2.042969 15.425781 1.691406 14.59375 1.488281 C 13.761719 1.289062 12.847656 1.1875 11.855469 1.1875 C 10.679688 1.1875 9.542969 1.34375 8.4375 1.65625 C 7.339844 1.96875 6.3125 2.445312 5.355469 3.082031 C 4.402344 3.714844 3.550781 4.507812 2.800781 5.457031 C 2.050781 6.410156 1.4375 7.523438 0.957031 8.800781 C 0.859375 9.066406 0.851562 9.285156 0.925781 9.457031 C 1.003906 9.625 1.113281 9.734375 1.261719 9.792969 Z M 22.925781 13.574219 C 23.09375 13.574219 23.230469 13.515625 23.332031 13.394531 C 23.4375 13.269531 23.484375 13.117188 23.46875 12.9375 C 23.308594 11.519531 23.046875 10.265625 22.675781 9.175781 C 22.316406 8.078125 21.84375 7.105469 21.261719 6.25 C 20.683594 5.394531 19.996094 4.617188 19.199219 3.917969 C 19.046875 3.785156 18.890625 3.730469 18.730469 3.75 C 18.570312 3.769531 18.445312 3.832031 18.355469 3.9375 C 18.257812 4.046875 18.207031 4.183594 18.207031 4.34375 C 18.214844 4.496094 18.296875 4.640625 18.449219 4.78125 C 19.476562 5.738281 20.335938 6.871094 21.03125 8.175781 C 21.734375 9.476562 22.171875 11.070312 22.34375 12.957031 C 22.363281 13.132812 22.421875 13.277344 22.519531 13.394531 C 22.625 13.515625 22.761719 13.574219 22.925781 13.574219 Z M 2.925781 19.019531 C 3.023438 19.160156 3.160156 19.242188 3.332031 19.269531 C 3.507812 19.292969 3.667969 19.238281 3.8125 19.113281 C 4.1875 18.800781 4.46875 18.402344 4.65625 17.917969 C 4.84375 17.429688 4.9375 16.921875 4.9375 16.394531 C 4.9375 15.917969 4.886719 15.492188 4.78125 15.125 C 4.675781 14.75 4.574219 14.359375 4.46875 13.949219 C 4.363281 13.539062 4.3125 13.035156 4.3125 12.4375 C 4.3125 11.417969 4.507812 10.457031 4.894531 9.5625 C 5.292969 8.660156 5.832031 7.863281 6.519531 7.175781 C 7.207031 6.484375 8.003906 5.941406 8.90625 5.550781 C 9.808594 5.15625 10.769531 4.957031 11.792969 4.957031 C 13.4375 4.957031 14.863281 5.378906 16.074219 6.21875 C 17.289062 7.050781 18.230469 8.21875 18.894531 9.71875 C 19.5625 11.210938 19.898438 12.953125 19.90625 14.9375 C 19.90625 16.097656 19.828125 17.089844 19.667969 17.917969 C 19.507812 18.734375 19.328125 19.382812 19.136719 19.855469 C 19.066406 20.019531 19.058594 20.179688 19.113281 20.332031 C 19.171875 20.484375 19.265625 20.597656 19.394531 20.667969 C 19.542969 20.730469 19.699219 20.734375 19.863281 20.675781 C 20.039062 20.621094 20.15625 20.511719 20.21875 20.34375 C 20.421875 19.789062 20.609375 19.058594 20.792969 18.15625 C 20.980469 17.253906 21.074219 16.175781 21.074219 14.925781 C 21.074219 13.265625 20.855469 11.757812 20.417969 10.394531 C 19.980469 9.035156 19.355469 7.859375 18.542969 6.875 C 17.730469 5.890625 16.753906 5.128906 15.613281 4.59375 C 14.476562 4.058594 13.203125 3.792969 11.792969 3.792969 C 10.609375 3.792969 9.496094 4.019531 8.449219 4.480469 C 7.40625 4.929688 6.484375 5.554688 5.6875 6.355469 C 4.894531 7.144531 4.273438 8.0625 3.824219 9.105469 C 3.371094 10.144531 3.144531 11.257812 3.144531 12.4375 C 3.144531 13.007812 3.199219 13.519531 3.300781 13.980469 C 3.414062 14.4375 3.519531 14.863281 3.625 15.261719 C 3.734375 15.648438 3.796875 16.023438 3.800781 16.386719 C 3.800781 16.738281 3.734375 17.078125 3.605469 17.394531 C 3.480469 17.714844 3.296875 17.984375 3.050781 18.199219 C 2.925781 18.300781 2.855469 18.433594 2.832031 18.59375 C 2.8125 18.753906 2.84375 18.894531 2.925781 19.019531 Z M 5.386719 20.957031 C 5.640625 20.828125 5.917969 20.605469 6.207031 20.292969 C 6.5 19.984375 6.765625 19.640625 7 19.261719 C 7.234375 18.871094 7.402344 18.496094 7.5 18.136719 C 7.542969 17.988281 7.53125 17.84375 7.46875 17.699219 C 7.40625 17.546875 7.292969 17.441406 7.125 17.386719 C 6.980469 17.335938 6.835938 17.351562 6.699219 17.425781 C 6.558594 17.503906 6.460938 17.625 6.40625 17.792969 C 6.265625 18.25 6.070312 18.652344 5.8125 19 C 5.5625 19.347656 5.246094 19.652344 4.863281 19.917969 C 4.675781 20.046875 4.5625 20.1875 4.519531 20.332031 C 4.484375 20.484375 4.496094 20.621094 4.550781 20.738281 C 4.613281 20.871094 4.722656 20.964844 4.875 21.019531 C 5.027344 21.078125 5.199219 21.054688 5.386719 20.957031 Z M 7.613281 15.3125 C 7.484375 14.957031 7.332031 14.550781 7.167969 14.09375 C 7.007812 13.636719 6.925781 13.105469 6.925781 12.5 C 6.925781 11.578125 7.144531 10.742188 7.582031 10 C 8.019531 9.257812 8.609375 8.667969 9.355469 8.230469 C 10.097656 7.792969 10.929688 7.574219 11.855469 7.574219 C 12.207031 7.574219 12.5 7.589844 12.730469 7.625 C 12.957031 7.652344 13.175781 7.707031 13.386719 7.792969 C 13.601562 7.875 13.863281 7.988281 14.175781 8.136719 C 14.335938 8.210938 14.484375 8.234375 14.613281 8.199219 C 14.753906 8.15625 14.851562 8.078125 14.90625 7.957031 C 14.988281 7.8125 15.007812 7.660156 14.957031 7.5 C 14.910156 7.339844 14.796875 7.207031 14.625 7.105469 C 14.277344 6.902344 13.859375 6.734375 13.363281 6.605469 C 12.871094 6.464844 12.367188 6.394531 11.855469 6.394531 C 11 6.394531 10.203125 6.550781 9.457031 6.863281 C 8.722656 7.175781 8.078125 7.609375 7.519531 8.167969 C 6.964844 8.722656 6.53125 9.371094 6.21875 10.113281 C 5.90625 10.851562 5.75 11.644531 5.75 12.5 C 5.75 13.160156 5.824219 13.757812 5.96875 14.292969 C 6.121094 14.828125 6.289062 15.316406 6.46875 15.761719 C 6.546875 15.933594 6.65625 16.054688 6.800781 16.125 C 6.949219 16.195312 7.113281 16.191406 7.300781 16.113281 C 7.453125 16.050781 7.558594 15.945312 7.613281 15.792969 C 7.671875 15.640625 7.671875 15.480469 7.613281 15.3125 Z M 15.8125 9.53125 C 16.3125 10.265625 16.6875 11.140625 16.9375 12.144531 C 17.195312 13.144531 17.324219 14.261719 17.324219 15.488281 C 17.324219 16.800781 17.152344 18.042969 16.8125 19.207031 C 16.480469 20.367188 16.027344 21.300781 15.457031 22.011719 C 15.367188 22.136719 15.320312 22.277344 15.3125 22.4375 C 15.304688 22.597656 15.359375 22.734375 15.480469 22.84375 C 15.605469 22.960938 15.757812 23.015625 15.9375 23 C 16.117188 22.992188 16.261719 22.921875 16.363281 22.78125 C 16.996094 21.921875 17.503906 20.84375 17.886719 19.550781 C 18.273438 18.261719 18.46875 16.890625 18.46875 15.449219 C 18.46875 14.398438 18.398438 13.480469 18.261719 12.6875 C 18.121094 11.890625 17.925781 11.1875 17.675781 10.582031 C 17.433594 9.972656 17.15625 9.414062 16.84375 8.90625 C 16.734375 8.738281 16.59375 8.632812 16.425781 8.582031 C 16.265625 8.535156 16.113281 8.546875 15.96875 8.625 C 15.816406 8.707031 15.722656 8.835938 15.6875 9.011719 C 15.652344 9.175781 15.695312 9.351562 15.8125 9.53125 Z M 7.574219 22.332031 C 8.425781 21.644531 9.078125 20.777344 9.53125 19.730469 C 9.988281 18.679688 10.214844 17.550781 10.207031 16.34375 C 10.203125 15.734375 10.140625 15.191406 10.03125 14.71875 C 9.921875 14.246094 9.808594 13.824219 9.699219 13.449219 C 9.59375 13.066406 9.542969 12.707031 9.542969 12.375 C 9.542969 11.714844 9.75 11.1875 10.167969 10.792969 C 10.589844 10.390625 11.140625 10.1875 11.824219 10.1875 C 12.515625 10.1875 13.066406 10.421875 13.46875 10.894531 C 13.871094 11.367188 14.164062 12 14.34375 12.792969 C 14.523438 13.578125 14.625 14.4375 14.644531 15.375 C 14.679688 16.457031 14.582031 17.476562 14.355469 18.425781 C 14.132812 19.371094 13.816406 20.210938 13.40625 20.949219 C 12.996094 21.683594 12.535156 22.277344 12.019531 22.730469 C 11.894531 22.832031 11.820312 22.957031 11.792969 23.105469 C 11.769531 23.25 11.800781 23.390625 11.886719 23.519531 C 11.984375 23.660156 12.117188 23.738281 12.292969 23.761719 C 12.464844 23.78125 12.621094 23.730469 12.761719 23.605469 C 13.300781 23.109375 13.796875 22.441406 14.25 21.59375 C 14.707031 20.746094 15.074219 19.785156 15.34375 18.707031 C 15.613281 17.625 15.746094 16.484375 15.738281 15.292969 C 15.738281 14.125 15.613281 13.070312 15.363281 12.125 C 15.113281 11.171875 14.703125 10.421875 14.136719 9.863281 C 13.566406 9.300781 12.796875 9.019531 11.824219 9.019531 C 11.175781 9.019531 10.59375 9.15625 10.074219 9.425781 C 9.558594 9.699219 9.148438 10.078125 8.84375 10.5625 C 8.546875 11.046875 8.394531 11.617188 8.394531 12.269531 C 8.394531 12.667969 8.449219 13.085938 8.550781 13.53125 C 8.65625 13.976562 8.761719 14.4375 8.863281 14.917969 C 8.96875 15.390625 9.023438 15.863281 9.03125 16.34375 C 9.039062 17.378906 8.855469 18.335938 8.480469 19.21875 C 8.105469 20.101562 7.558594 20.832031 6.84375 21.417969 C 6.703125 21.535156 6.621094 21.667969 6.59375 21.8125 C 6.574219 21.964844 6.609375 22.109375 6.699219 22.238281 C 6.800781 22.390625 6.9375 22.476562 7.105469 22.488281 C 7.277344 22.503906 7.433594 22.453125 7.574219 22.332031 Z M 10.011719 23.167969 C 10.421875 22.867188 10.847656 22.410156 11.292969 21.792969 C 11.734375 21.179688 12.054688 20.542969 12.25 19.875 C 12.285156 19.757812 12.28125 19.621094 12.238281 19.46875 C 12.203125 19.308594 12.105469 19.203125 11.9375 19.144531 C 11.765625 19.082031 11.609375 19.085938 11.46875 19.15625 C 11.328125 19.226562 11.234375 19.328125 11.1875 19.46875 C 10.921875 20.164062 10.628906 20.730469 10.300781 21.167969 C 9.984375 21.605469 9.648438 21.957031 9.300781 22.230469 C 9.171875 22.332031 9.085938 22.460938 9.050781 22.613281 C 9.023438 22.773438 9.054688 22.921875 9.144531 23.050781 C 9.230469 23.199219 9.359375 23.28125 9.53125 23.300781 C 9.703125 23.324219 9.863281 23.277344 10.011719 23.167969 Z M 12.84375 17.449219 C 12.941406 16.976562 12.992188 16.472656 13 15.9375 C 13.007812 15.394531 12.96875 14.847656 12.886719 14.292969 C 12.800781 13.734375 12.675781 13.199219 12.511719 12.675781 C 12.441406 12.484375 12.335938 12.347656 12.199219 12.269531 C 12.058594 12.195312 11.910156 12.179688 11.75 12.230469 C 11.597656 12.277344 11.484375 12.371094 11.40625 12.511719 C 11.328125 12.640625 11.320312 12.796875 11.375 12.980469 C 11.535156 13.480469 11.648438 13.980469 11.71875 14.480469 C 11.796875 14.972656 11.828125 15.453125 11.824219 15.925781 C 11.824219 16.398438 11.78125 16.855469 11.699219 17.292969 C 11.664062 17.445312 11.679688 17.585938 11.75 17.71875 C 11.820312 17.851562 11.945312 17.929688 12.125 17.957031 C 12.292969 17.992188 12.445312 17.964844 12.582031 17.875 C 12.722656 17.777344 12.808594 17.636719 12.84375 17.449219 Z M 12.84375 17.449219 "/>
</g>
</svg>

<svg xmlns="http://www.w3.org/2000/svg" width="24" height="24"><path style="stroke:none;fill-rule:nonzero;fill:#fff;fill-opacity:1" d="M1.719 16a.496.496 0 0 0 .324-.281.727.727 0 0 0 .039-.48 14.02 14.02 0 0 1-.3-1.657 12.744 12.744 0 0 1-.063-1.969c.008-.191-.04-.343-.137-.445A.531.531 0 0 0 1.207 11c-.2-.016-.355.031-.469.137a.689.689 0 0 0-.187.406c-.04.582-.035 1.223.023 1.914.055.688.184 1.395.383 2.117.059.18.156.309.305.383.144.078.297.09.457.043Zm-.457-6.207c.156.055.324.05.476-.012.168-.07.285-.203.356-.406.562-1.563 1.351-2.86 2.363-3.895 1.016-1.043 2.16-1.824 3.438-2.343a10.437 10.437 0 0 1 3.96-.782c.922 0 1.754.094 2.5.282.75.18 1.434.445 2.051.8a.98.98 0 0 0 .532.145c.171-.012.296-.105.375-.281.082-.18.09-.328.019-.446a.825.825 0 0 0-.3-.312 8.197 8.197 0 0 0-2.438-1.055c-.832-.199-1.746-.3-2.739-.3a12.485 12.485 0 0 0-3.418.468 10.962 10.962 0 0 0-5.636 3.801C2.05 6.41 1.437 7.523.957 8.801c-.098.265-.105.484-.031.656a.616.616 0 0 0 .336.336Zm21.664 3.781a.52.52 0 0 0 .406-.18.609.609 0 0 0 .137-.457c-.16-1.417-.422-2.671-.793-3.761a11.636 11.636 0 0 0-1.414-2.926 12.093 12.093 0 0 0-2.063-2.332c-.152-.133-.308-.188-.469-.168a.553.553 0 0 0-.375.188.6.6 0 0 0-.148.406c.008.152.09.297.242.437a12.875 12.875 0 0 1 2.582 3.395c.703 1.3 1.14 2.894 1.313 4.781.02.176.078.32.176.438.105.12.242.18.406.18Zm-20 5.446a.586.586 0 0 0 .886.093c.376-.312.657-.71.844-1.195.188-.488.282-.996.282-1.523 0-.477-.051-.903-.157-1.27-.11-.39-.21-.781-.312-1.176-.106-.41-.157-.914-.157-1.511 0-1.02.196-1.981.583-2.876.39-.89.94-1.699 1.625-2.386A7.548 7.548 0 0 1 8.906 5.55a7.063 7.063 0 0 1 2.887-.594c1.645 0 3.07.422 4.281 1.262 1.215.832 2.156 2 2.82 3.5.669 1.492 1.004 3.234 1.012 5.219 0 1.16-.078 2.152-.238 2.98-.16.816-.34 1.465-.531 1.937a.63.63 0 0 0 .258.813.627.627 0 0 0 .468.008.53.53 0 0 0 .356-.332c.203-.555.39-1.285.574-2.188.187-.902.281-1.98.281-3.23 0-1.66-.219-3.168-.656-4.531-.438-1.36-1.063-2.536-1.875-3.52a8.32 8.32 0 0 0-2.93-2.281c-1.136-.535-2.41-.801-3.82-.801a8.202 8.202 0 0 0-3.344.687 8.76 8.76 0 0 0-2.761 1.875 8.589 8.589 0 0 0-1.864 2.75 8.205 8.205 0 0 0-.68 3.332c0 .57.055 1.083.157 1.543.113.457.219.883.324 1.282.11.386.172.761.176 1.125 0 .351-.067.691-.196 1.008-.125.32-.308.59-.554.804a.6.6 0 0 0-.219.395c-.02.16.012.3.094.426Zm2.46 1.937c.255-.129.532-.352.821-.664.293-.309.559-.652.793-1.031a4.46 4.46 0 0 0 .5-1.125.626.626 0 0 0-.031-.438.527.527 0 0 0-.344-.312.509.509 0 0 0-.426.039.626.626 0 0 0-.293.367 3.867 3.867 0 0 1-1.543 2.125c-.187.129-.3.27-.343.414a.63.63 0 0 0 .03.406.538.538 0 0 0 .325.282c.152.058.324.035.512-.063Zm2.227-5.645c-.129-.355-.281-.761-.445-1.218-.16-.457-.242-.989-.242-1.594 0-.922.219-1.758.656-2.5a4.906 4.906 0 0 1 1.773-1.77c.743-.437 1.575-.656 2.5-.656.352 0 .645.016.875.051.227.027.446.082.657.168.215.082.476.195.789.344.16.074.308.097.437.062a.435.435 0 0 0 .293-.242.552.552 0 0 0 .051-.457.691.691 0 0 0-.332-.395 5.032 5.032 0 0 0-1.262-.5c-.492-.14-1-.21-1.508-.21-.855 0-1.652.156-2.398.468A6.095 6.095 0 0 0 7.52 8.168a6.117 6.117 0 0 0-1.301 1.945A6.021 6.021 0 0 0 5.75 12.5c0 .66.074 1.258.219 1.793.152.535.32 1.023.5 1.469a.717.717 0 0 0 .332.363c.148.07.312.066.5-.012a.528.528 0 0 0 .312-.32.679.679 0 0 0 0-.48Zm8.2-5.78c.5.734.874 1.609 1.124 2.613.258 1 .387 2.117.387 3.343 0 1.313-.172 2.555-.512 3.719-.332 1.16-.785 2.094-1.355 2.805a.764.764 0 0 0-.145.425.491.491 0 0 0 .168.407c.122.117.29.176.457.156a.526.526 0 0 0 .426-.219c.633-.86 1.14-1.937 1.524-3.23.386-1.29.582-2.66.582-4.102 0-1.05-.07-1.969-.207-2.761-.14-.797-.336-1.5-.586-2.106-.242-.61-.52-1.168-.832-1.676a.739.739 0 0 0-.418-.324.567.567 0 0 0-.457.043.541.541 0 0 0-.281.387c-.036.164.007.34.124.52Zm-8.239 12.8a6.73 6.73 0 0 0 1.957-2.602c.457-1.05.684-2.18.676-3.386 0-.547-.059-1.09-.176-1.625-.11-.473-.222-.895-.332-1.27a4.013 4.013 0 0 1-.156-1.074c0-.66.207-1.188.625-1.582.422-.402.973-.605 1.656-.605.692 0 1.242.234 1.645.707.402.472.695 1.105.875 1.898.18.785.281 1.645.3 2.582.04 1.023-.058 2.05-.289 3.05-.222.946-.539 1.786-.949 2.524-.41.735-.87 1.328-1.386 1.781a.628.628 0 0 0-.227.375.554.554 0 0 0 .11.438.554.554 0 0 0 .39.219.577.577 0 0 0 .469-.157c.539-.496 1.035-1.164 1.488-2.011.457-.848.824-1.809 1.094-2.887.27-1.082.402-2.223.394-3.414 0-1.168-.125-2.223-.375-3.168-.25-.953-.66-1.703-1.226-2.262-.57-.562-1.34-.843-2.313-.843a3.777 3.777 0 0 0-1.75.406 3.19 3.19 0 0 0-1.23 1.136c-.297.485-.45 1.055-.45 1.708 0 .398.055.816.157 1.261.105.446.21.906.312 1.387.106.473.16.945.168 1.426.008 1.035-.176 1.992-.55 2.875a5.623 5.623 0 0 1-1.637 2.199.678.678 0 0 0-.25.395c-.02.148.015.3.105.425a.515.515 0 0 0 .406.25.604.604 0 0 0 .47-.156Zm2.438.836c.41-.3.836-.758 1.281-1.375.441-.613.762-1.25.957-1.918a.72.72 0 0 0-.012-.406c-.035-.16-.133-.266-.3-.324a.576.576 0 0 0-.47.011.54.54 0 0 0-.28.313c-.266.695-.56 1.261-.887 1.699-.317.437-.653.789-1 1.062a.67.67 0 0 0-.25.383.58.58 0 0 0 .094.438c.085.148.214.23.386.25a.645.645 0 0 0 .48-.133Zm2.832-5.719A7.88 7.88 0 0 0 13 15.937a10.44 10.44 0 0 0-.488-3.262c-.07-.19-.176-.327-.313-.405a.563.563 0 0 0-.449-.04.562.562 0 0 0-.344.282c-.078.129-.086.285-.031.468.16.5.273 1 .344 1.5.078.493.11.973.105 1.446 0 .472-.043.93-.125 1.367a.595.595 0 0 0 .051.426c.07.133.195.21.375.238.168.035.32.008.457-.082a.635.635 0 0 0 .262-.426Zm0 0"/></svg>
